X:1
T:Title
L:1/8
M:6/8
K:D
V:1 treble nm="Grand Piano"
V:1
 z3[Q:1/4=140] F2 E | D6- | D2 D D2 E | F2 E G2 F | E2 D C2 B, | C6- | C3 G2 F | E6- | E2 E E2 F | %9
 G2 F A2 G | B2 A G2 F | F6- | F3 F2 E | D6- | D2 D D2 E | F2 =F ^F2 G | A2 ^G A2 ^A | B6- | %18
 B3 B2 c | d2 d c2 B | A2 G F2 E | D2 C F3 | E3 D3- |[M:9/16] D4- D/ |[M:3/8] B2 c | %25
[M:3/4] d2 d d2 d | d2 c B2 A | A6- | A3 A2 F | A6- | A3 B2 c | d2 d d2 d | d2 c B2 A | A6- | %34
 A3 A2 F | A6- | A3 E2 F | G2 G G2 G | G2 G A2 G | F6- | F3 F2 G | A6- | A3 B2 c | d6- | d6 | A6- | %46
 A3 d2 c | B2 A G2 F | E3 A3 | F6 | E6 | D6- | D4 z2 |] %53

